
/*

Narcissus.start;

*/

// Changing sound sample
// Narcissus.buffer = Buffer.read(server, path);

/*

(
Narcissus.buffer = Buffer.read(Server.default,
// copy-paste here
// path: "/Users/jp/Dropbox/JPH2/SoundSamples/swallows/swallows10minL.aiff"
// path: "/Users/jp/Dropbox/JPH2/SoundSamples/poets/MureauCage.aiff"
path: "/Users/jp/Dropbox/JPH2/SoundSamples/swallows/swallows_clean5am.wav"
);
)

(
Narcissus.buffer = Buffer.read(Server.default,
	path: "/Users/jp/Dropbox/JPH2/SoundSamples/poets/MureauCage.aiff"
);
Narcissus.setRateSpec(0.99, 1.01);
)

*/

/*

Narcissus.setRateSpec(min, max);
Narcissus.setRateSpec(0.5, 1.5); // risquy
Narcissus.setRateSpec(0.8, 1.2);
Narcissus.setRateSpec(0.9, 1.1);
Narcissus.setRateSpec(0.99, 1.01);

*/